X: 18
T: Goin' Down South
M: C|
R: square
K: F
P: Intro
"F"c2 c4 d2| c8| "Bb"c2B2 B2d2| f4 F2G2| "F"A4 c4| "C7"A4 G4| "F"F8| "Gm" z8"C7"||
%%vskip.5cm
|:\
"F"c2 c4 d2| c8| A2 A4 B2| A8| "C7"A2G2 G2^F2| G4 A2G2| "Gm"F2F2- F2D2| "C7"C8|
"F"c2 c4 d2| c8| A2 A4 B2| A8| "C"G4 c4| "G7"=B4 d4|"C"c8| "Gm"z2A2 "C7"B2=B2|
"F"c2 c4 d2| c8| A2 A4 B2| A8| "C7"A2G2 G2^F2| G4 A2G2| "Gm"F2F2- F2D2| "C7"C8|
"F"c2 c4 d2| "F7"c8| "Bb"c2B2 B2d2| "Bdim"f4 F2G2|1 "F"A4 c4| "C7"A4 G4| "F"F8| z8 :|
[2 "F"A4 c4| "C7"A4 F2G2| "F"A4 c4| "C7"A4 F2G2| "F"A4 c4| "C7"A4 G4| "F"F8| z8 |]
